!!!!SEGMENT: Gom2007-Dignare_me.krn
!!!id: Gom2007
!!!AGN: Motet
!!!voices: 4
!!!COM: Nicolas Gombert
!!!OTL: Dignare me
**kern	**kern	**kern	**kern
*part4	*part3	*part2	*part1
*staff4	*staff3	*staff2	*staff1
*I"Bassus	*I"Tenor	*I"Altus	*I"Superius
*I'B	*I'T	*I'A	*I'S
*clefF4	*clefGv2	*clefGv2	*clefG2
*k[b-]	*k[b-]	*k[b-]	*k[b-]
*M2/1	*M2/1	*M2/1	*M2/1
*met(C|)	*met(C|)	*met(C|)	*met(C|)
!!Section: Prima pars: Dignare me
!!!OMD: Prima pars: Dignare me
=1	=1	=1	=1
0r	0r	1d	0r
.	.	1d	.
=2	=2	=2	=2
0r	0r	1e	1r
.	.	[1f	1a
=3	=3	=3	=3
0r	0r	2f]	1a
.	.	2c	.
.	.	2e	1b-y
.	.	2d	.
=4	=4	=4	=4
0r	0r	1c	1.cc
.	.	1r	.
.	.	.	2g
=5	=5	=5	=5
0r	0r	2d	2b-y
.	.	1f	2a
.	.	.	1g
.	.	[2e	.
=6	=6	=6	=6
0r	1r	4e]	1b-y
.	.	4d	.
.	.	2g	.
.	1A	2f	2a
.	.	[2e	[2cc
=7	=7	=7	=7
0r	1A	2e]	4cc]
.	.	.	4b-y
.	.	2c	4a
.	.	.	4g
.	1B-y	1d	2f
.	.	.	[2g
=8	=8	=8	=8
0r	1.c	1.e	2g]
.	.	.	2a
.	.	.	2g
.	2G	[2d	[2b-y
=9	=9	=9	=9
0r	2B-y	2d]	4b-]
.	.	.	4g
.	2A	2c	1cc
.	1G	2.d	.
.	.	.	2b-y
.	.	4e	.
=10	=10	=10	=10
1D	0r	4f	2.a
.	.	4d	.
.	.	2.f	.
.	.	.	8gL
.	.	.	8aJ
1D	.	.	4b-y
.	.	4e	4a
.	.	4d	2a
.	.	4c	.
=11	=11	=11	=11
1E	1r	1B-y	2a
.	.	.	2g
[1F	1A	2A	2a
.	.	[2c	4g
.	.	.	4f
=12	=12	=12	=12
2F]	1A	2c]	2f
2C	.	4B-y	2.e
.	.	4A	.
2E-X	1B-y	2G	.
.	.	.	4d
2D	.	2F	[2f
=13	=13	=13	=13
1C	1.c	1G	2f]
.	.	.	2e
1r	.	[1F	1f
.	2A	.	.
=14	=14	=14	=14
2D	2B-y	1F]	1d
2D	2A	.	.
1E	2G	1r	1r
.	[2c	.	.
=15	=15	=15	=15
1.F	2c]	1A	0r
.	2d	.	.
.	2.c	1A	.
2C	.	.	.
.	8B-yL	.	.
.	8AJ	.	.
=16	=16	=16	=16
2E	2G	1B-y	0r
2D	2F	.	.
2C	1A	2.c	.
[2F	.	.	.
.	.	4B-y	.
=17	=17	=17	=17
4F]	1A	4A	1d
4E	.	4G	.
4D	.	4F	.
4C	.	4E	.
1D	1B-y	1F	1d
=18	=18	=18	=18
1C	1c	1G	1e
1D	2A	1r	[1f
.	[2B-y	.	.
=19	=19	=19	=19
1r	2B-]	2r	2f]
.	2A	1c	2c
2r	2.G	.	2e
[2G	.	2B-y	2d
.	4B-y	.	.
=20	=20	=20	=20
2G]	1A	2c	1c
2F	.	2A	.
2G	1G	2B-y	1r
2E	.	[2c	.
=21	=21	=21	=21
2F	1r	2c]	0r
2.G	.	2.B-y	.
.	[1d	.	.
4F	.	4G	.
2D	.	2A	.
=22	=22	=22	=22
1E	2d]	2B-y	1.g
.	2c	2G	.
1D	2d	1A	.
.	2A	.	2f
=23	=23	=23	=23
0r	1B-y	2r	2g
.	.	1d	2d
.	2.A	.	2f
.	.	2c	2e
.	8GL	.	.
.	8AJ	.	.
=24	=24	=24	=24
2r	2B-y	2d	2d
1D	2F	2A	2.f
.	1G	2B-y	.
.	.	.	4d
2C	.	2c	2e
=25	=25	=25	=25
2D	2F	2.A	2d
2AA	1A	.	2c
.	.	4G	.
1BB-y	.	2F	2d
.	2G	4E	[2dd
.	.	4D	.
=26	=26	=26	=26
1AA	2A	1E	2dd]
.	2E	.	2cc
1r	1F	2r	2dd
.	.	[2A	2a
=27	=27	=27	=27
1r	1E	2A]	2cc
.	.	2G	2b-y
[1D	1F	1A	2a
.	.	.	[2f
=28	=28	=28	=28
2D]	1G	2B-y	4f]
.	.	.	4d
2C	.	2c	2e
2D	2F	2A	2f
2AA	2A	2c	[2e
=29	=29	=29	=29
1BB-y	4G	2B-y	4e]
.	4F	.	4d
.	4E	2G	1d
.	4D	.	.
1AA	1E	1A	.
.	.	.	2c#i
=30	=30	=30	=30
2r	1G	1B-y	0d
2GG	.	.	.
[1D	2F	1A	.
.	2D	.	.
=31	=31	=31	=31
2D]	1.A	0r	0r
2C	.	.	.
1F	.	.	.
.	2F	.	.
=32	=32	=32	=32
1E	1c	2r	1r
.	.	2G	.
1D	1B-y	[1d	2r
.	.	.	2d
=33	=33	=33	=33
0r	1A	2d]	1.a
.	.	2c	.
.	2r	1f	.
.	2D	.	2b-y
=34	=34	=34	=34
0r	1.A	2.e	1cc
.	.	8dL	.
.	.	8cJ	.
.	.	1d	2.b-y
.	2G	.	.
.	.	.	4a
=35	=35	=35	=35
1r	1c	1e	2g
.	.	.	1a
2r	1B-y	2d	.
2GG	.	2e	2g
=36	=36	=36	=36
1.D	2A	4f	0a
.	.	4g	.
.	2D	2.f	.
.	[1A	.	.
.	.	8eL	.
.	.	8dJ	.
2C	.	2e	.
=37	=37	=37	=37
2F	2A]	2.c	0r
2.E	2G	.	.
.	.	4B-y	.
.	2c	2A	.
4F	.	.	.
[2G	[2B-y	2G	.
=38	=38	=38	=38
2G]	2B-]	1d	0r
2F	1A	.	.
1E	.	2d	.
.	2G	2c	.
=39	=39	=39	=39
2.D	2A	1f	1d
.	2.d	.	.
4C	.	.	.
2AA	.	1e	[1a
.	4B-y	.	.
2AA	8cL	.	.
.	8B-y	.	.
.	8A	.	.
.	8GJ	.	.
=40	=40	=40	=40
2BB-y	4F	2d	2a]
.	4D	.	.
2C	1G	1e	2g
1AA	.	.	1cc
.	2F	4d	.
.	.	4c	.
=41	=41	=41	=41
1GG	1G	2e	1b-y
.	.	1d	.
1AA	2.E	.	1a
.	.	2c	.
.	4C	.	.
=42	=42	=42	=42
4GG	1G	1B-y	2r
4AA	.	.	.
4BB-y	.	.	2d
4C	.	.	.
1D	1F	2A	4d
.	.	.	4e
.	.	2d	4f
.	.	.	4g
=43	=43	=43	=43
0r	0r	2c	2a
.	.	2B-y	1b-y
.	.	1e-i	.
.	.	.	4a
.	.	.	4g
=44	=44	=44	=44
0r	2r	2d	2b-y
.	2D	2.f	1a
.	4D	.	.
.	4E	4e	.
.	4F	[2d	4g
.	4G	.	4f
=45	=45	=45	=45
1r	2A	2d]	2e
.	2A	2c	1f
2r	[1B-y	[1d	.
2GG	.	.	4e
.	.	.	4d
=46	=46	=46	=46
4GG	2B-]	1d]	1g
4AA	.	.	.
4BB-y	4A	.	.
4C	4G	.	.
4D	2B-y	2r	1f
4E	.	.	.
4F	2A	2d	.
4D	.	.	.
=47	=47	=47	=47
2E-i	4G	2c	0r
.	4F	.	.
2D	1B-y	2B-y	.
1C	.	1e-i	.
.	2A	.	.
=48	=48	=48	=48
0BB-y	1B-y	2d	2r
.	.	2.f	2d
.	2D	.	4d
.	.	4e	4e
.	4D	[2d	4f
.	4E	.	4g
=49	=49	=49	=49
1r	4F	2d]	4a
.	4G	.	4b-y
.	2A	2c	4cc
.	.	.	4a
2r	4G	2.d	2.b-y
.	4A	.	.
2GG	4B-y	.	.
.	4c	4c	4a
=50	=50	=50	=50
4GG	2d	1B-y	1g
4AA	.	.	.
4BB-y	2D	.	.
4C	.	.	.
2D	4D	1A	1f
.	4E	.	.
2D	4F	.	.
.	4G	.	.
=51	=51	=51	=51
2C	2A	2r	2e
2BB-y	1B-y	2G	2d
1E-i	.	4G	1g
.	.	4A	.
.	4A	4B-y	.
.	4G	4c	.
=52	=52	=52	=52
1.D	2B-y	2.d	1f
.	2A	.	.
.	.	4c	.
.	2F	2A	2r
2BB-y	[2G	2D	2b-y
=53	=53	=53	=53
2.C	4G]	2F	2a
.	4F	.	.
.	1E	2.G	2g
4BB-y	.	.	.
1AA	.	.	1cc
.	.	4E	.
.	4D	2F	.
.	4C	.	.
=54	=54	=54	=54
2GG	0D	4G	1b-y
.	.	4A	.
1G	.	4B-y	.
.	.	4c	.
.	.	4d	2a
.	.	4e	.
2F	.	[2f	2d
=55	=55	=55	=55
1B-y	1d	2f]	4d
.	.	.	4e
.	.	4e	4f
.	.	4d	4g
2A	2c	2e	2a
2G	2B-y	[2g	[2b-y
=56	=56	=56	=56
2.E-i	1e-i	2g]	2b-]
.	.	2g	4a
4F	.	.	4g
2G	1d	2g	2b-y
2D	.	[2f	[2a
=57	=57	=57	=57
2F	2c	2f]	4a]
.	.	.	4g
2G	2B-y	2e-i	1g
1D	1A	1d	.
.	.	.	2f#i
=58	=58	=58	=58
1r	[0Gl	1B-y	1g
[1C	.	2c	2e
.	.	[2e-i	[2g
=59	=59	=59	=59
2C]	0G_	4e-]	4g]
.	.	4d	4f
2C	.	4c	4e-i
.	.	4B-y	4d
1C	.	1c	1e-i
=60	=60	=60	=60
0GG	0G]	0B-y	0d
=61||	=61||	=61||	=61||
*M2/1	*M2/1	*M2/1	*M2/1
*met(C|)	*met(C|)	*met(C|)	*met(C|)
!!Section: Secunda pars: O regina
!!!OMD: Secunda pars: O regina
0r	0r	0d	0r
=62	=62	=62	=62
0r	0r	1.c	1r
.	.	.	[1g
.	.	2B-y	.
=63	=63	=63	=63
0r	0r	1e-i	1g]
.	.	2.d	[1f
.	.	4c	.
=64	=64	=64	=64
0r	0r	4A	2f]
.	.	4B-y	.
.	.	1c	2e
.	.	.	1a
.	.	4B-y	.
.	.	4A	.
=65	=65	=65	=65
0r	0r	2B-y	2.g
.	.	2c	.
.	.	.	4f
.	.	2B-y	4d
.	.	.	4e
.	.	2A	[2f
=66	=66	=66	=66
0r	0r	1.B-y	2f]
.	.	.	4e
.	.	.	4d
.	.	.	4e
.	.	.	4d
.	.	[2d	[2b-y
=67	=67	=67	=67
1.F	1r	2d]	4b-]
.	.	.	4a
.	.	2.c	2.a
.	[1c	.	.
.	.	4d	4g
2E	.	[2e	[2g
=68	=68	=68	=68
1A	1c]	2e]	2g]
.	.	4d	2f#i
.	.	4c	.
2.G	[1B-y	1e	1g
4F	.	.	.
=69	=69	=69	=69
4D	2B-]	2.d	0f
4E	.	.	.
1F	2A	.	.
.	.	4c	.
.	1d	1A	.
4E	.	.	.
4D	.	.	.
=70	=70	=70	=70
2E	2.c	0r	1r
2F	.	.	.
.	4B-y	.	.
2.E	4G	.	[1g
.	4A	.	.
.	[2B-y	.	.
4D	.	.	.
=71	=71	=71	=71
1E	2B-]	0r	1g]
.	4A	.	.
.	4G	.	.
1D	2A	.	[1f
.	2B-y	.	.
=72	=72	=72	=72
0r	4G	0c	2f]
.	4F	.	.
.	2.A	.	2e
.	.	.	1a
.	4G	.	.
.	[2F	.	.
=73	=73	=73	=73
0r	2F]	1.B-y	2.g
.	2E	.	.
.	.	.	4f
.	1F	.	4d
.	.	.	4e
.	.	2A	[2f
=74	=74	=74	=74
0G	0r	1d	2f]
.	.	.	4e
.	.	.	4d
.	.	1B-y	4e
.	.	.	4d
.	.	.	[2b-y
=75	=75	=75	=75
1.F	1r	2.c	4b-]
.	.	.	4a
.	.	.	2.a
.	.	4B-y	.
.	[1c	4c	.
.	.	4d	4g
2E	.	[2e	[2g
=76	=76	=76	=76
1A	1c]	2e]	4g]
.	.	.	4f
.	.	4d	2f
.	.	4c	.
2.G	[1B-y	2d	1g
.	.	2e-X	.
4F	.	.	.
=77	=77	=77	=77
4D	2B-]	2.d	2f
4E	.	.	.
1F	2A	.	1a
.	.	4c	.
.	1d	1A	.
4E	.	.	4g
4D	.	.	4f
=78	=78	=78	=78
2E	2.c	1r	2g
2F	.	.	2a
.	4B-y	.	.
2E	4G	2r	2.b-y
.	4A	.	.
2D	[2B-y	[2d	.
.	.	.	4a
=79	=79	=79	=79
1E	2B-]	2d]	2g
.	4A	2c	4f
.	4G	.	4e
2D	1A	2d	4f
.	.	.	2g
2F	.	2A	.
.	.	.	4f
=80	=80	=80	=80
2.E-i	2r	2B-y	1g
.	1G	2c	.
4D	.	.	.
[1BB-y	.	1d	1r
.	2F	.	.
=81	=81	=81	=81
1BB-]	2G	0d	1r
.	2D	.	.
1r	2F	.	2r
.	2G	.	[2g
=82	=82	=82	=82
2r	2.A	0r	2g]
1D	.	.	2f
.	8GL	.	.
.	8FJ	.	.
.	1E	.	2g
2C	.	.	2e
=83	=83	=83	=83
2D	2D	0r	2f
2GG	1B-y	.	2.g
2BB-y	.	.	.
.	.	.	4f
2C	2A	.	[2a
=84	=84	=84	=84
1D	2F	1r	4a]
.	.	.	4g
.	2G	.	1g
1D	2.A	[1d	.
.	.	.	2f
.	8GL	.	.
.	8FJ	.	.
=85	=85	=85	=85
0r	1E	2d]	2.g
.	.	2c	.
.	.	.	4a
.	1r	2d	4b-y
.	.	.	4cc
.	.	2G	[2dd
=86	=86	=86	=86
0r	2r	2B-y	2dd]
.	1A	2c	1cc
.	.	1d	.
.	2G	.	2b-y
=87	=87	=87	=87
0r	2A	2c	2cc
.	2D	1f	1a
.	2F	.	.
.	2G	4e	4g
.	.	4d	4f
=88	=88	=88	=88
1r	1A	2c	2e
.	.	1d	2f
1AA	1A	.	1e
.	.	[2c	.
=89	=89	=89	=89
1.D	1r	2c]	2d
.	.	4B-y	1f
.	.	4A	.
.	1D	1B-y	.
2D	.	.	4e
.	.	.	4d
=90	=90	=90	=90
2C	1.G	2c	2e
2BB-y	.	2d	2d
4GG	.	1B-y	1d
4AA	.	.	.
4BB-y	2G	.	.
4C	.	.	.
=91	=91	=91	=91
2D	2F	1A	0r
1C	2E	.	.
.	4C	1r	.
.	4D	.	.
4BB-y	4E	.	.
4AA	4F	.	.
=92	=92	=92	=92
2BB-y	2G	0r	1d
1D	1F	.	.
.	.	.	[1g
4C	4E	.	.
4BB-y	4D	.	.
=93	=93	=93	=93
1C	1E	1G	2g]
.	.	.	2g
[1AA	1r	[1c	2f
.	.	.	2e
=94	=94	=94	=94
1AA]	0r	2c]	4c
.	.	.	4d
.	.	2c	4e
.	.	.	4f
1r	.	2B-y	2g
.	.	[2A	[2f
=95	=95	=95	=95
1D	0r	2A]	2f]
.	.	4G	4e
.	.	4F	4d
[1G	.	2B-y	2e
.	.	2c	2d
=96	=96	=96	=96
2G]	1G	2d	4B-y
.	.	.	4c
2G	.	4c	4d
.	.	4B-y	4e
2F	[1c	2A	2f
2E	.	2G	2g
=97	=97	=97	=97
4C	2c]	1G	1e
4D	.	.	.
4E	2c	.	.
4F	.	.	.
2G	2B-y	1r	1d
[2F	2A	.	.
=98	=98	=98	=98
2F]	4F	1d	0r
.	4G	.	.
4E	4A	.	.
4D	4B-y	.	.
1E	2c	[1g	.
.	2B-y	.	.
=99	=99	=99	=99
2r	1c	2g]	2r
2E	.	2g	2g
[1A	1r	2f	[1cc
.	.	2e	.
=100	=100	=100	=100
2A]	2r	4c	2cc]
.	.	4d	.
2A	2A	4e	2cc
.	.	4f	.
2G	[1d	2g	2b-y
2F	.	2c	2a
=101	=101	=101	=101
4D	2d]	1f	4f
4E	.	.	4g
4F	2d	.	4a
4G	.	.	4b-y
2A	2c	1e	2cc
[2G	2B-y	.	2g
=102	=102	=102	=102
2G]	4G	1.d	1b-y
.	4A	.	.
4F	4B-y	.	.
4E	4c	.	.
2F	2d	.	1a
2G	[2e	2c	.
=103	=103	=103	=103
1B-y	4e]	4g	1r
.	4d	4f	.
.	1d	4e	.
.	.	4d	.
1A	.	1e	2r
.	2c	.	2a
=104	=104	=104	=104
2G	0d	2r	2b-y
2F	.	2A	2a
2G	.	2B-y	2g
2F	.	2A	2a
=105	=105	=105	=105
0D	2r	[0d	2b-y
.	2A	.	2a
.	2B-y	.	2f
.	2A	.	2a
=106	=106	=106	=106
2r	2G	1d]	2b-y
2A	2F	.	2a
2B-y	2G	2r	2g
[2A	2F	2A	2a
=107	=107	=107	=107
2A]	0D	1B-y	2f
1G	.	.	2d
.	.	1A	2d
2F	.	.	2a
=108	=108	=108	=108
2G	2r	[0d	2b-y
2F	2A	.	2a
1D	2B-y	.	2f
.	2A	.	2a
=109	=109	=109	=109
2r	2G	1d]	2b-y
2D	2F	.	2a
2E-X	2G	2r	2g
2D	[2A	2d	2f
=110	=110	=110	=110
2C	4A]	2e-X	1g
.	4G	.	.
2BB-y	1G	2d	.
2C	.	1c	2r
2AA	2F#i	.	2a
=111	=111	=111	=111
1GG	1G	2r	2.b-y
.	.	2d	.
.	.	.	4a
1r	1r	2e	2g
.	.	2d	2f
=112	=112	=112	=112
2r	0r	1c	2g
2A	.	.	2e
2B-y	.	2g	2d
2A	.	2f	2a
=113	=113	=113	=113
2G	0r	4e	2b-y
.	.	4d	.
2F	.	2.d	1a
2G	.	.	.
.	.	8cL	.
.	.	8B-yJ	.
2E-X	.	2c	[2g
=114	=114	=114	=114
1D	1d	1A	2g]
.	.	.	2f
1r	2.e-i	2.c	2.g
.	4d	4d	8fL
.	.	.	8gJ
=115	=115	=115	=115
1r	2c	2e-X	2a
.	2B-y	2d	1g
1A	2c	2e-i	.
.	2A	4d	2f
.	.	4c	.
=116	=116	=116	=116
2.B-y	2.G	2.d	2g
.	.	.	2.b-y
4A	4A	4c	.
2G	2B-y	4d	.
.	.	4e	4a
2F	[2c	2f	[2a
=117	=117	=117	=117
2G	4c]	2e	4a]
.	4B-y	.	4g
2E-X	4A	2c	1g
.	4G	.	.
2D	1A	1d	.
2D	.	.	2f#i
=118	=118	=118	=118
2E-i	[0Gl	2B-y	1g
2D	.	2d	.
2C	.	2e-i	2r
2BB-y	.	[2d	2d
=119	=119	=119	=119
2C	0G_	4d]	1e-X
.	.	4c	.
2C	.	1c	.
2GG	.	.	1d
2GG	.	2B-y	.
=120	=120	=120	=120
1.C	0G_	4e-i	2.c
.	.	4d	.
.	.	4c	.
.	.	4B-y	4d
.	.	1c	2e-i
2C	.	.	2e-i
=121	=121	=121	=121
0GGl	0G]	0B-yl	0dl
==	==	==	==
*-	*-	*-	*-
!!!system-decoration: [*]
!!!RDF**kern: i = editorial accidental
!!!RDF**kern: l = terminal long
!!!ENC: Janosch Umbreit
!!!END: 2025/11/7
!!!EED: Benjamin Ory
!!!EEV: 2025/11/10
!!!YEC: Copyright 2025 Benjamin Ory, All Rights Reserved
!!!ONB: Translated from MusicXML on 2025/11/10